assets/icons/inbox-filled.svg

<?xml version="1.0" encoding="UTF-8" standalone="no"?>
<svg viewBox="0 0 24 24" height="24" id="svg7384" version="1.1" width="24" sodipodi:docname="inbox-filled.svg" inkscape:version="1.1 (ce6663b3b7, 2021-05-25)"
   xmlns:inkscape="http://www.inkscape.org/namespaces/inkscape"
   xmlns:sodipodi="http://sodipodi.sourceforge.net/DTD/sodipodi-0.dtd"
   xmlns="http://www.w3.org/2000/svg"
   xmlns:svg="http://www.w3.org/2000/svg"
   xmlns:rdf="http://www.w3.org/1999/02/22-rdf-syntax-ns#"
   xmlns:cc="http://creativecommons.org/ns#"
   xmlns:dc="http://purl.org/dc/elements/1.1/">
   <sodipodi:namedview id="namedview21" pagecolor="#ffffff" bordercolor="#666666" borderopacity="1.0" inkscape:pageshadow="2" inkscape:pageopacity="0.0" inkscape:pagecheckerboard="0" showgrid="true" inkscape:snap-page="true" inkscape:zoom="28" inkscape:cx="8.5178571" inkscape:cy="13.125" inkscape:window-width="1920" inkscape:window-height="1016" inkscape:window-x="0" inkscape:window-y="27" inkscape:window-maximized="1" inkscape:current-layer="svg7384">
      <inkscape:grid type="xygrid" id="grid1022" />
   </sodipodi:namedview>
   <metadata id="metadata20854">
      <rdf:RDF>
         <cc:Work rdf:about="">
            <dc:format>image/svg+xml</dc:format>
            <dc:type rdf:resource="http://purl.org/dc/dcmitype/StillImage" />
         </cc:Work>
      </rdf:RDF>
   </metadata>
   <defs id="defs7386">
      <linearGradient id="linearGradient5606" inkscape:swatch="solid">
         <stop id="stop5608" offset="0" style="stop-color:#000000;stop-opacity:1;" />
      </linearGradient>
      <linearGradient id="linearGradient4526" inkscape:swatch="solid">
         <stop id="stop4528" offset="0" style="stop-color:#ffffff;stop-opacity:1;" />
      </linearGradient>
      <linearGradient id="linearGradient3600-4" inkscape:swatch="gradient">
         <stop id="stop3602-7" offset="0" style="stop-color:#f4f4f4;stop-opacity:1" />
         <stop id="stop3604-6" offset="1" style="stop-color:#dbdbdb;stop-opacity:1" />
      </linearGradient>
   </defs>
   <path id="path873" style="color:#000000;fill:#808080;fill-opacity:1;-inkscape-stroke:none" d="M 5 11 L 5 18.5 C 5 19.041666 5.0636 19.483918 5.2304688 19.859375 C 5.3973388 20.234832 5.6879007 20.527544 6.0273438 20.697266 C 6.7062288 21.036708 7.500001 21 8.5 21 L 15.5 21 C 16.499999 21 17.293771 21.03671 17.972656 20.697266 C 18.312099 20.527544 18.602661 20.234832 18.769531 19.859375 C 18.936401 19.483918 19 19.041666 19 18.5 L 19 11 L 18 11 L 18 16 L 6 16 L 6 11 L 5 11 z M 11 18 L 13 18 L 13 19 L 11 19 L 11 18 z " />
   <g id="layer9" label="status" style="display:inline;stroke-width:0.8" transform="matrix(1.25,0,0,1.25,-689.25025,-139.25)" />
   <g id="layer2" style="display:inline;stroke-width:0.8" transform="matrix(1.25,0,0,1.25,-388,-598)" />
   <g id="layer4" style="display:inline;stroke-width:0.8" transform="matrix(1.25,0,0,1.25,-388,-598)" />
   <g id="g1812" style="display:inline;stroke-width:0.8" transform="matrix(1.25,0,0,1.25,-388,-598)" />
   <g id="g6217" style="display:inline;stroke-width:0.8" transform="matrix(1.25,0,0,1.25,-388,-598)" />
   <g id="layer3" style="display:inline;stroke-width:0.8" transform="matrix(1.25,0,0,1.25,-388,-598)" />
   <g id="g1833" style="display:inline;stroke-width:0.8" transform="matrix(1.25,0,0,1.25,-388,-598)" />
   <path id="path3301" style="color:#000000;font-style:normal;font-variant:normal;font-weight:normal;font-stretch:normal;font-size:medium;line-height:normal;font-family:sans-serif;font-variant-ligatures:normal;font-variant-position:normal;font-variant-caps:normal;font-variant-numeric:normal;font-variant-alternates:normal;font-feature-settings:normal;text-indent:0;text-align:start;text-decoration:none;text-decoration-line:none;text-decoration-style:solid;text-decoration-color:#000000;letter-spacing:normal;word-spacing:normal;text-transform:none;writing-mode:lr-tb;direction:ltr;text-orientation:mixed;dominant-baseline:auto;baseline-shift:baseline;text-anchor:start;white-space:normal;shape-padding:0;clip-rule:nonzero;display:inline;overflow:visible;visibility:visible;isolation:auto;mix-blend-mode:normal;color-interpolation:sRGB;color-interpolation-filters:linearRGB;solid-color:#000000;solid-opacity:1;vector-effect:none;fill:#808080;fill-opacity:1;fill-rule:nonzero;stroke:none;stroke-width:1px;stroke-linecap:round;stroke-linejoin:round;stroke-miterlimit:4;stroke-dasharray:none;stroke-dashoffset:0;stroke-opacity:1;color-rendering:auto;image-rendering:auto;shape-rendering:auto;text-rendering:auto;enable-background:accumulate" d="m 11,3 v 4.9999999 h -0.25 -1.875 c 0.434575,0.950525 0.919844,1.917118 1.457031,2.9023431 0.538488,0.975974 1.095119,1.816406 1.667969,2.722656 0.561388,-0.90625 1.111915,-1.746682 1.650391,-2.722656 0.537189,-0.9852291 1.028645,-1.9518001 1.474609,-2.9023431 h -1.875 -0.25 v -4.9999999 z" />
</svg>

<svg height="24" width="24" xmlns="http://www.w3.org/2000/svg"><path style="color:#000;fill:gray;fill-opacity:1;-inkscape-stroke:none" d="M5 11v7.5c0 .542.064.984.23 1.36.167.375.458.668.797.837.68.34 1.473.303 2.473.303h7c1 0 1.794.037 2.473-.303.34-.17.63-.462.797-.838.166-.375.23-.817.23-1.359V11h-1v5H6v-5H5zm6 7h2v1h-2v-1z"/><path style="color:#000;font-style:normal;font-variant:normal;font-weight:400;font-stretch:normal;font-size:medium;line-height:normal;font-family:sans-serif;font-variant-ligatures:normal;font-variant-position:normal;font-variant-caps:normal;font-variant-numeric:normal;font-variant-alternates:normal;font-feature-settings:normal;text-indent:0;text-align:start;text-decoration:none;text-decoration-line:none;text-decoration-style:solid;text-decoration-color:#000;letter-spacing:normal;word-spacing:normal;text-transform:none;writing-mode:lr-tb;direction:ltr;text-orientation:mixed;dominant-baseline:auto;baseline-shift:baseline;text-anchor:start;white-space:normal;shape-padding:0;clip-rule:nonzero;display:inline;overflow:visible;visibility:visible;isolation:auto;mix-blend-mode:normal;color-interpolation:sRGB;color-interpolation-filters:linearRGB;solid-color:#000;solid-opacity:1;vector-effect:none;fill:gray;fill-opacity:1;fill-rule:nonzero;stroke:none;stroke-width:1px;stroke-linecap:round;stroke-linejoin:round;stroke-miterlimit:4;stroke-dasharray:none;stroke-dashoffset:0;stroke-opacity:1;color-rendering:auto;image-rendering:auto;shape-rendering:auto;text-rendering:auto;enable-background:accumulate" d="M11 3v5H8.875c.435.95.92 1.917 1.457 2.902.539.976 1.095 1.817 1.668 2.723.561-.906 1.112-1.747 1.65-2.723A53.834 53.834 0 0 0 15.125 8H13V3z"/></svg>
